X: 41084
T: Trip To Pakistan, The
R: reel
M: 4/4
K: Eminor
|:"Em"EGBE G3B|"D"A3B AGFG|"Em"EGBE "G"G3B|"D"AFDE "Em"FEED:|
|:"Em"EGBE "C"c3A|"Bm"BAGB AGFG|"Em"EGBE "C"c3A|"G"BAGB "D"A3G:|
|:"Em (CM7)"FGBF GBFG|"Em"EFGE FGEF|"D"DFAD FADB|1 "D"AGFG "Em"E3G:|2 "D"AGFG "Em"E4||

